Assets/Cinematic URP Post-Processing/Textures/LUTs/CUPP 3D LUTs/Graphicwaves 29.cube
TITLE "Generated by Koji Color"
LUT_3D_SIZE 9
0.011765 0.011765 0.011765
0.101961 0.011765 0.011765
0.243137 0.015686 0.015686
0.447059 0.015686 0.015686
0.705882 0.015686 0.015686
0.847059 0.015686 0.015686
0.894118 0.011765 0.011765
0.894118 0.011765 0.011765
0.894118 0.011765 0.011765
0.011765 0.054902 0.015686
0.058824 0.050980 0.015686
0.200000 0.047059 0.011765
0.411765 0.019608 0.011765
0.694118 0.015686 0.015686
0.847059 0.015686 0.015686
0.894118 0.011765 0.011765
0.894118 0.011765 0.011765
0.894118 0.011765 0.011765
0.007843 0.141176 0.015686
0.011765 0.137255 0.015686
0.164706 0.141176 0.007843
0.356863 0.129412 0.007843
0.611765 0.054902 0.007843
0.847059 0.015686 0.015686
0.894118 0.011765 0.011765
0.894118 0.011765 0.011765
0.894118 0.011765 0.011765
0.007843 0.247059 0.015686
0.007843 0.243137 0.015686
0.070588 0.239216 0.007843
0.317647 0.250980 0.003922
0.596078 0.235294 0.003922
0.772549 0.156863 0.003922
0.894118 0.011765 0.011765
0.894118 0.011765 0.011765
0.894118 0.011765 0.011765
0.007843 0.380392 0.007843
0.007843 0.380392 0.007843
0.007843 0.380392 0.007843
0.196078 0.392157 0.003922
0.572549 0.411765 0.003922
0.811765 0.380392 0.003922
0.854902 0.274510 0.003922
0.894118 0.011765 0.011765
0.894118 0.011765 0.011765
0.003922 0.486275 0.003922
0.003922 0.486275 0.003922
0.003922 0.486275 0.003922
0.003922 0.486275 0.003922
0.396078 0.552941 0.003922
0.854902 0.588235 0.000000
0.956863 0.549020 0.000000
0.905882 0.435294 0.000000
0.843137 0.235294 0.003922
0.003922 0.521569 0.003922
0.003922 0.521569 0.003922
0.003922 0.521569 0.003922
0.003922 0.521569 0.003922
0.003922 0.521569 0.003922
0.643137 0.639216 0.000000
0.992157 0.666667 0.000000
0.996078 0.647059 0.000000
0.988235 0.627451 0.000000
0.003922 0.525490 0.003922
0.003922 0.525490 0.003922
0.003922 0.525490 0.003922
0.003922 0.525490 0.003922
0.003922 0.525490 0.003922
0.003922 0.525490 0.003922
0.878431 0.674510 0.000000
0.996078 0.678431 0.000000
0.996078 0.678431 0.000000
0.003922 0.525490 0.003922
0.003922 0.525490 0.003922
0.003922 0.525490 0.003922
0.003922 0.525490 0.003922
0.003922 0.525490 0.003922
0.003922 0.525490 0.003922
0.003922 0.525490 0.003922
0.996078 0.678431 0.000000
0.996078 0.678431 0.000000
0.011765 0.011765 0.098039
0.082353 0.011765 0.082353
0.231373 0.015686 0.054902
0.439216 0.015686 0.015686
0.701961 0.015686 0.015686
0.847059 0.015686 0.015686
0.894118 0.011765 0.011765
0.894118 0.011765 0.011765
0.894118 0.011765 0.011765
0.007843 0.054902 0.062745
0.039216 0.047059 0.050980
0.192157 0.043137 0.027451
0.411765 0.015686 0.015686
0.690196 0.015686 0.015686
0.847059 0.015686 0.015686
0.894118 0.011765 0.011765
0.894118 0.011765 0.011765
0.894118 0.011765 0.011765
0.007843 0.141176 0.023529
0.007843 0.133333 0.015686
0.152941 0.137255 0.007843
0.349020 0.125490 0.007843
0.607843 0.047059 0.007843
0.843137 0.015686 0.015686
0.894118 0.011765 0.011765
0.894118 0.011765 0.011765
0.894118 0.011765 0.011765
0.007843 0.243137 0.015686
0.007843 0.239216 0.015686
0.047059 0.235294 0.007843
0.309804 0.247059 0.003922
0.592157 0.235294 0.003922
0.772549 0.152941 0.003922
0.894118 0.011765 0.011765
0.894118 0.011765 0.011765
0.894118 0.011765 0.011765
0.007843 0.380392 0.007843
0.007843 0.380392 0.007843
0.007843 0.376471 0.007843
0.184314 0.388235 0.003922
0.564706 0.407843 0.003922
0.811765 0.376471 0.003922
0.854902 0.270588 0.003922
0.894118 0.011765 0.011765
0.894118 0.011765 0.011765
0.003922 0.486275 0.003922
0.003922 0.486275 0.003922
0.003922 0.486275 0.003922
0.003922 0.486275 0.003922
0.388235 0.549020 0.003922
0.854902 0.588235 0.000000
0.956863 0.549020 0.000000
0.905882 0.435294 0.000000
0.843137 0.235294 0.003922
0.003922 0.521569 0.003922
0.003922 0.521569 0.003922
0.003922 0.521569 0.003922
0.003922 0.521569 0.003922
0.003922 0.521569 0.003922
0.635294 0.639216 0.000000
0.992157 0.666667 0.000000
0.996078 0.647059 0.000000
0.988235 0.627451 0.000000
0.003922 0.525490 0.003922
0.003922 0.525490 0.003922
0.003922 0.525490 0.003922
0.003922 0.525490 0.003922
0.003922 0.525490 0.003922
0.003922 0.525490 0.003922
0.874510 0.674510 0.000000
0.996078 0.678431 0.000000
0.996078 0.678431 0.000000
0.003922 0.525490 0.003922
0.003922 0.525490 0.003922
0.003922 0.525490 0.003922
0.003922 0.525490 0.003922
0.003922 0.525490 0.003922
0.003922 0.525490 0.003922
0.003922 0.525490 0.003922
0.996078 0.678431 0.000000
0.996078 0.678431 0.000000
0.011765 0.011765 0.235294
0.054902 0.015686 0.227451
0.211765 0.015686 0.211765
0.415686 0.011765 0.176471
0.682353 0.015686 0.066667
0.847059 0.015686 0.015686
0.894118 0.011765 0.011765
0.894118 0.011765 0.011765
0.894118 0.011765 0.011765
0.007843 0.050980 0.203922
0.019608 0.047059 0.196078
0.168627 0.039216 0.188235
0.403922 0.011765 0.152941
0.678431 0.015686 0.035294
0.847059 0.015686 0.015686
0.894118 0.011765 0.011765
0.894118 0.011765 0.011765
0.894118 0.011765 0.011765
0.007843 0.149020 0.180392
0.007843 0.141176 0.172549
0.117647 0.145098 0.160784
0.345098 0.133333 0.109804
0.607843 0.039216 0.007843
0.843137 0.015686 0.015686
0.894118 0.011765 0.011765
0.894118 0.011765 0.011765
0.894118 0.011765 0.011765
0.007843 0.247059 0.098039
0.007843 0.239216 0.078431
0.015686 0.231373 0.050980
0.298039 0.243137 0.003922
0.584314 0.231373 0.003922
0.768628 0.145098 0.003922
0.894118 0.011765 0.011765
0.894118 0.011765 0.011765
0.894118 0.011765 0.011765
0.007843 0.380392 0.007843
0.007843 0.376471 0.007843
0.007843 0.376471 0.007843
0.164706 0.384314 0.003922
0.556863 0.407843 0.003922
0.807843 0.372549 0.003922
0.850980 0.266667 0.003922
0.894118 0.011765 0.011765
0.894118 0.011765 0.011765
0.003922 0.486275 0.003922
0.003922 0.486275 0.003922
0.003922 0.486275 0.003922
0.003922 0.486275 0.003922
0.372549 0.549020 0.003922
0.854902 0.588235 0.000000
0.956863 0.549020 0.000000
0.905882 0.431373 0.000000
0.843137 0.231373 0.003922
0.003922 0.521569 0.003922
0.003922 0.521569 0.003922
0.003922 0.521569 0.003922
0.003922 0.521569 0.003922
0.003922 0.521569 0.003922
0.627451 0.639216 0.000000
0.992157 0.662745 0.000000
0.996078 0.647059 0.000000
0.988235 0.627451 0.000000
0.003922 0.525490 0.003922
0.003922 0.525490 0.003922
0.003922 0.525490 0.003922
0.003922 0.525490 0.003922
0.003922 0.525490 0.003922
0.003922 0.525490 0.003922
0.874510 0.674510 0.000000
0.996078 0.678431 0.000000
0.996078 0.678431 0.000000
0.003922 0.525490 0.003922
0.003922 0.525490 0.003922
0.003922 0.525490 0.003922
0.003922 0.525490 0.003922
0.003922 0.525490 0.003922
0.003922 0.525490 0.003922
0.003922 0.525490 0.003922
0.996078 0.678431 0.000000
0.996078 0.678431 0.000000
0.015686 0.015686 0.443137
0.015686 0.015686 0.435294
0.160784 0.015686 0.419608
0.384314 0.011765 0.392157
0.647059 0.011765 0.337255
0.807843 0.011765 0.192157
0.894118 0.011765 0.011765
0.894118 0.011765 0.011765
0.894118 0.011765 0.011765
0.011765 0.039216 0.392157
0.011765 0.027451 0.392157
0.125490 0.023529 0.392157
0.368627 0.011765 0.376471
0.643137 0.011765 0.321569
0.811765 0.011765 0.164706
0.894118 0.011765 0.011765
0.894118 0.011765 0.011765
0.894118 0.011765 0.011765
0.007843 0.149020 0.364706
0.007843 0.141176 0.356863
0.043137 0.145098 0.356863
0.301961 0.137255 0.349020
0.588235 0.023529 0.290196
0.815686 0.011765 0.117647
0.894118 0.011765 0.011765
0.894118 0.011765 0.011765
0.894118 0.011765 0.011765
0.003922 0.258824 0.333333
0.003922 0.254902 0.325490
0.007843 0.250980 0.313726
0.247059 0.282353 0.321569
0.588235 0.266667 0.262745
0.768628 0.129412 0.007843
0.894118 0.011765 0.011765
0.894118 0.011765 0.011765
0.894118 0.011765 0.011765
0.003922 0.396078 0.239216
0.003922 0.392157 0.223529
0.003922 0.388235 0.203922
0.031373 0.403922 0.168627
0.549020 0.403922 0.003922
0.803922 0.368627 0.003922
0.850980 0.258824 0.003922
0.894118 0.011765 0.011765
0.894118 0.011765 0.011765
0.003922 0.486275 0.003922
0.003922 0.486275 0.003922
0.003922 0.486275 0.003922
0.003922 0.486275 0.003922
0.341176 0.541176 0.003922
0.847059 0.584314 0.000000
0.952941 0.545098 0.000000
0.905882 0.427451 0.000000
0.839216 0.223529 0.003922
0.003922 0.521569 0.003922
0.003922 0.521569 0.003922
0.003922 0.521569 0.003922
0.003922 0.521569 0.003922
0.003922 0.521569 0.003922
0.611765 0.635294 0.000000
0.992157 0.662745 0.000000
0.996078 0.647059 0.000000
0.988235 0.627451 0.000000
0.003922 0.525490 0.003922
0.003922 0.525490 0.003922
0.003922 0.525490 0.003922
0.003922 0.525490 0.003922
0.003922 0.525490 0.003922
0.003922 0.525490 0.003922
0.870588 0.674510 0.000000
0.996078 0.678431 0.000000
0.996078 0.678431 0.000000
0.003922 0.525490 0.003922
0.003922 0.525490 0.003922
0.003922 0.525490 0.003922
0.003922 0.525490 0.003922
0.003922 0.525490 0.003922
0.003922 0.525490 0.003922
0.003922 0.525490 0.003922
0.996078 0.678431 0.000000
0.996078 0.678431 0.000000
0.015686 0.015686 0.705882
0.015686 0.015686 0.701961
0.062745 0.015686 0.682353
0.309804 0.011765 0.639216
0.596078 0.011765 0.596078
0.752941 0.007843 0.521569
0.815686 0.007843 0.333333
0.894118 0.011765 0.011765
0.894118 0.011765 0.011765
0.015686 0.015686 0.698039
0.015686 0.015686 0.694118
0.039216 0.015686 0.678431
0.290196 0.011765 0.635294
0.588235 0.011765 0.588235
0.756863 0.007843 0.513726
0.819608 0.007843 0.317647
0.894118 0.011765 0.011765
0.894118 0.011765 0.011765
0.007843 0.129412 0.576471
0.007843 0.121569 0.572549
0.007843 0.109804 0.568627
0.180392 0.098039 0.568627
0.576471 0.011765 0.576471
0.756863 0.007843 0.505882
0.823529 0.007843 0.294118
0.894118 0.011765 0.011765
0.894118 0.011765 0.011765
0.003922 0.262745 0.556863
0.003922 0.258824 0.552941
0.003922 0.254902 0.549020
0.047059 0.286275 0.564706
0.525490 0.286275 0.556863
0.733333 0.168627 0.482353
0.839216 0.007843 0.227451
0.894118 0.011765 0.011765
0.894118 0.011765 0.011765
0.003922 0.411765 0.537255
0.003922 0.411765 0.533333
0.003922 0.407843 0.525490
0.003922 0.400000 0.517647
0.478431 0.486275 0.545098
0.823529 0.458824 0.470588
0.862745 0.262745 0.003922
0.894118 0.011765 0.011765
0.894118 0.011765 0.011765
0.003922 0.533333 0.427451
0.003922 0.529412 0.419608
0.003922 0.529412 0.407843
0.003922 0.525490 0.384314
0.043137 0.603922 0.349020
0.878431 0.619608 0.003922
0.952941 0.541176 0.000000
0.901961 0.419608 0.000000
0.835294 0.203922 0.003922
0.003922 0.521569 0.003922
0.003922 0.521569 0.003922
0.003922 0.521569 0.003922
0.003922 0.521569 0.003922
0.003922 0.521569 0.003922
0.572549 0.631373 0.000000
0.988235 0.662745 0.000000
0.996078 0.647059 0.000000
0.988235 0.623529 0.000000
0.003922 0.525490 0.003922
0.003922 0.525490 0.003922
0.003922 0.525490 0.003922
0.003922 0.525490 0.003922
0.003922 0.525490 0.003922
0.003922 0.525490 0.003922
0.858824 0.674510 0.000000
0.996078 0.678431 0.000000
0.996078 0.678431 0.000000
0.003922 0.525490 0.003922
0.003922 0.525490 0.003922
0.003922 0.525490 0.003922
0.003922 0.525490 0.003922
0.003922 0.525490 0.003922
0.003922 0.525490 0.003922
0.003922 0.525490 0.003922
0.996078 0.678431 0.000000
0.996078 0.678431 0.000000
0.015686 0.019608 0.850980
0.015686 0.019608 0.850980
0.015686 0.019608 0.847059
0.141176 0.015686 0.792157
0.501961 0.007843 0.733333
0.670588 0.003922 0.650980
0.658824 0.000000 0.564706
0.756863 0.003922 0.501961
0.894118 0.011765 0.011765
0.015686 0.019608 0.847059
0.015686 0.019608 0.847059
0.015686 0.019608 0.847059
0.125490 0.015686 0.796079
0.494118 0.007843 0.737255
0.670588 0.003922 0.654902
0.658824 0.000000 0.564706
0.760784 0.003922 0.498039
0.894118 0.011765 0.011765
0.011765 0.035294 0.784314
0.011765 0.023529 0.819608
0.011765 0.019608 0.839216
0.094118 0.019608 0.803922
0.482353 0.007843 0.741176
0.670588 0.003922 0.654902
0.662745 0.000000 0.564706
0.768628 0.007843 0.486275
0.894118 0.011765 0.011765
0.003922 0.239216 0.682353
0.003922 0.235294 0.682353
0.003922 0.227451 0.682353
0.007843 0.215686 0.674510
0.384314 0.254902 0.694118
0.643137 0.003922 0.631373
0.670588 0.000000 0.564706
0.776471 0.007843 0.462745
0.894118 0.011765 0.011765
0.003922 0.403922 0.690196
0.003922 0.403922 0.690196
0.003922 0.400000 0.690196
0.003922 0.392157 0.686275
0.211765 0.490196 0.741176
0.768628 0.486275 0.752941
0.819608 0.341176 0.682353
0.800000 0.007843 0.388235
0.894118 0.011765 0.011765
0.000000 0.545098 0.705882
0.000000 0.545098 0.705882
0.000000 0.545098 0.705882
0.000000 0.545098 0.701961
0.000000 0.572549 0.717647
0.792157 0.760784 0.784314
0.956863 0.717647 0.701961
0.933333 0.458824 0.082353
0.823529 0.152941 0.003922
0.000000 0.588235 0.600000
0.000000 0.584314 0.600000
0.000000 0.584314 0.596078
0.000000 0.584314 0.584314
0.000000 0.584314 0.560784
0.364706 0.764706 0.568627
1.000000 0.784314 0.149020
0.996078 0.643137 0.000000
0.988235 0.619608 0.000000
0.003922 0.525490 0.003922
0.003922 0.525490 0.003922
0.003922 0.525490 0.003922
0.003922 0.525490 0.003922
0.003922 0.525490 0.003922
0.003922 0.525490 0.003922
0.831373 0.670588 0.000000
0.996078 0.678431 0.000000
0.996078 0.678431 0.000000
0.003922 0.525490 0.003922
0.003922 0.525490 0.003922
0.003922 0.525490 0.003922
0.003922 0.525490 0.003922
0.003922 0.525490 0.003922
0.003922 0.525490 0.003922
0.003922 0.525490 0.003922
0.996078 0.678431 0.000000
0.996078 0.678431 0.000000
0.011765 0.019608 0.890196
0.011765 0.019608 0.890196
0.011765 0.019608 0.890196
0.011765 0.019608 0.890196
0.250980 0.007843 0.784314
0.572549 0.000000 0.639216
0.643137 0.000000 0.635294
0.643137 0.000000 0.627451
0.643137 0.000000 0.600000
0.011765 0.019608 0.890196
0.011765 0.019608 0.890196
0.011765 0.019608 0.890196
0.011765 0.019608 0.890196
0.227451 0.007843 0.788235
0.572549 0.000000 0.639216
0.643137 0.000000 0.635294
0.643137 0.000000 0.627451
0.643137 0.000000 0.600000
0.011765 0.019608 0.890196
0.011765 0.019608 0.890196
0.011765 0.019608 0.890196
0.011765 0.019608 0.890196
0.192157 0.011765 0.796079
0.568627 0.000000 0.643137
0.643137 0.000000 0.635294
0.643137 0.000000 0.623529
0.643137 0.000000 0.596078
0.007843 0.109804 0.737255
0.007843 0.101961 0.745098
0.007843 0.086275 0.752941
0.007843 0.050980 0.792157
0.149020 0.011765 0.803922
0.564706 0.000000 0.647059
0.643137 0.000000 0.635294
0.643137 0.000000 0.623529
0.643137 0.000000 0.592157
0.003922 0.360784 0.729412
0.003922 0.356863 0.729412
0.003922 0.356863 0.729412
0.003922 0.349020 0.725490
0.003922 0.356863 0.729412
0.682353 0.423529 0.815686
0.745098 0.180392 0.745098
0.643137 0.000000 0.619608
0.643137 0.000000 0.584314
0.000000 0.529412 0.760784
0.000000 0.529412 0.760784
0.000000 0.529412 0.760784
0.000000 0.529412 0.760784
0.000000 0.525490 0.760784
0.615686 0.749020 0.890196
0.913726 0.721569 0.890196
0.870588 0.533333 0.819608
0.674510 0.000000 0.603922
0.000000 0.580392 0.764706
0.000000 0.580392 0.764706
0.000000 0.580392 0.760784
0.000000 0.580392 0.760784
0.000000 0.580392 0.760784
0.000000 0.705882 0.831373
0.933333 0.909804 0.909804
0.972549 0.886275 0.866667
0.976471 0.831373 0.768628
0.000000 0.588235 0.709804
0.000000 0.588235 0.709804
0.000000 0.588235 0.709804
0.000000 0.588235 0.705882
0.000000 0.588235 0.701961
0.000000 0.588235 0.690196
0.709804 0.874510 0.768628
1.000000 0.850980 0.403922
0.996078 0.678431 0.000000
0.003922 0.525490 0.003922
0.003922 0.525490 0.003922
0.003922 0.525490 0.003922
0.003922 0.525490 0.003922
0.003922 0.525490 0.003922
0.003922 0.525490 0.003922
0.003922 0.525490 0.003922
0.996078 0.678431 0.000000
0.996078 0.678431 0.000000
0.011765 0.019608 0.890196
0.011765 0.019608 0.890196
0.011765 0.019608 0.890196
0.011765 0.019608 0.890196
0.011765 0.019608 0.890196
0.474510 0.003922 0.725490
0.639216 0.000000 0.635294
0.643137 0.000000 0.635294
0.643137 0.000000 0.635294
0.011765 0.019608 0.890196
0.011765 0.019608 0.890196
0.011765 0.019608 0.890196
0.011765 0.019608 0.890196
0.011765 0.019608 0.890196
0.466667 0.003922 0.729412
0.639216 0.000000 0.635294
0.643137 0.000000 0.635294
0.643137 0.000000 0.635294
0.011765 0.019608 0.890196
0.011765 0.019608 0.890196
0.011765 0.019608 0.890196
0.011765 0.019608 0.890196
0.011765 0.019608 0.890196
0.458824 0.003922 0.737255
0.635294 0.000000 0.635294
0.643137 0.000000 0.635294
0.643137 0.000000 0.635294
0.011765 0.019608 0.890196
0.011765 0.019608 0.890196
0.011765 0.019608 0.890196
0.011765 0.019608 0.890196
0.011765 0.019608 0.890196
0.431373 0.007843 0.745098
0.635294 0.000000 0.635294
0.643137 0.000000 0.635294
0.643137 0.000000 0.635294
0.003922 0.203922 0.721569
0.003922 0.196078 0.721569
0.003922 0.188235 0.721569
0.003922 0.172549 0.721569
0.007843 0.125490 0.733333
0.337255 0.007843 0.768628
0.631373 0.000000 0.635294
0.643137 0.000000 0.635294
0.643137 0.000000 0.635294
0.000000 0.498039 0.752941
0.000000 0.494118 0.752941
0.000000 0.494118 0.752941
0.000000 0.490196 0.752941
0.000000 0.482353 0.752941
0.000000 0.549020 0.803922
0.854902 0.607843 0.870588
0.796079 0.333333 0.796079
0.643137 0.000000 0.635294
0.000000 0.572549 0.764706
0.000000 0.572549 0.764706
0.000000 0.572549 0.764706
0.000000 0.572549 0.764706
0.000000 0.572549 0.764706
0.000000 0.568627 0.764706
0.870588 0.894118 0.933333
0.952941 0.878431 0.929412
0.945098 0.839216 0.917647
0.000000 0.584314 0.764706
0.000000 0.584314 0.764706
0.000000 0.584314 0.764706
0.000000 0.584314 0.764706
0.000000 0.584314 0.764706
0.000000 0.584314 0.764706
0.000000 0.780392 0.870588
0.968628 0.952941 0.949020
0.968628 0.952941 0.949020
0.000000 0.584314 0.764706
0.000000 0.584314 0.764706
0.000000 0.584314 0.764706
0.000000 0.584314 0.764706
0.000000 0.584314 0.764706
0.000000 0.584314 0.764706
0.000000 0.584314 0.764706
0.968628 0.952941 0.949020
0.972549 0.952941 0.937255
0.011765 0.019608 0.890196
0.011765 0.019608 0.890196
0.011765 0.019608 0.890196
0.011765 0.019608 0.890196
0.011765 0.019608 0.890196
0.011765 0.019608 0.890196
0.619608 0.000000 0.635294
0.643137 0.000000 0.635294
0.643137 0.000000 0.635294
0.011765 0.019608 0.890196
0.011765 0.019608 0.890196
0.011765 0.019608 0.890196
0.011765 0.019608 0.890196
0.011765 0.019608 0.890196
0.011765 0.019608 0.890196
0.619608 0.000000 0.635294
0.643137 0.000000 0.635294
0.643137 0.000000 0.635294
0.011765 0.019608 0.890196
0.011765 0.019608 0.890196
0.011765 0.019608 0.890196
0.011765 0.019608 0.890196
0.011765 0.019608 0.890196
0.011765 0.019608 0.890196
0.615686 0.000000 0.635294
0.643137 0.000000 0.635294
0.643137 0.000000 0.635294
0.011765 0.019608 0.890196
0.011765 0.019608 0.890196
0.011765 0.019608 0.890196
0.011765 0.019608 0.890196
0.011765 0.019608 0.890196
0.011765 0.019608 0.890196
0.615686 0.000000 0.635294
0.643137 0.000000 0.635294
0.643137 0.000000 0.635294
0.011765 0.019608 0.890196
0.011765 0.019608 0.890196
0.011765 0.019608 0.890196
0.011765 0.019608 0.890196
0.011765 0.019608 0.890196
0.011765 0.019608 0.890196
0.607843 0.000000 0.635294
0.643137 0.000000 0.635294
0.643137 0.000000 0.635294
0.000000 0.431373 0.741176
0.000000 0.431373 0.741176
0.000000 0.427451 0.741176
0.000000 0.419608 0.741176
0.000000 0.407843 0.737255
0.003922 0.372549 0.729412
0.756863 0.431373 0.823529
0.643137 0.000000 0.635294
0.643137 0.000000 0.635294
0.000000 0.568627 0.764706
0.000000 0.568627 0.764706
0.000000 0.568627 0.764706
0.000000 0.564706 0.764706
0.000000 0.564706 0.764706
0.000000 0.564706 0.768628
0.713726 0.858824 0.917647
0.945098 0.850980 0.921569
0.933333 0.792157 0.909804
0.000000 0.584314 0.764706
0.000000 0.584314 0.764706
0.000000 0.584314 0.764706
0.000000 0.584314 0.764706
0.000000 0.584314 0.764706
0.000000 0.584314 0.764706
0.000000 0.584314 0.764706
0.968628 0.952941 0.949020
0.968628 0.952941 0.949020
0.000000 0.584314 0.764706
0.000000 0.584314 0.764706
0.000000 0.584314 0.764706
0.000000 0.584314 0.764706
0.000000 0.584314 0.764706
0.000000 0.584314 0.764706
0.000000 0.584314 0.764706
0.956863 0.952941 0.949020
0.968628 0.952941 0.949020
