Assets/Cinematic URP Post-Processing/Textures/LUTs/CUPP 3D LUTs/Graphicwaves 29.cube
TITLE "Generated by Koji Color"
LUT_3D_SIZE 5
0.011765 0.011765 0.011765
0.243137 0.015686 0.015686
0.705882 0.015686 0.015686
0.894118 0.011765 0.011765
0.894118 0.011765 0.011765
0.007843 0.141176 0.015686
0.164706 0.141176 0.007843
0.611765 0.054902 0.007843
0.894118 0.011765 0.011765
0.894118 0.011765 0.011765
0.007843 0.380392 0.007843
0.007843 0.380392 0.007843
0.572549 0.411765 0.003922
0.854902 0.274510 0.003922
0.894118 0.011765 0.011765
0.003922 0.521569 0.003922
0.003922 0.521569 0.003922
0.003922 0.521569 0.003922
0.992157 0.666667 0.000000
0.988235 0.627451 0.000000
0.003922 0.525490 0.003922
0.003922 0.525490 0.003922
0.003922 0.525490 0.003922
0.003922 0.525490 0.003922
0.996078 0.678431 0.000000
0.011765 0.011765 0.235294
0.211765 0.015686 0.211765
0.682353 0.015686 0.066667
0.894118 0.011765 0.011765
0.894118 0.011765 0.011765
0.007843 0.149020 0.180392
0.117647 0.145098 0.160784
0.607843 0.039216 0.007843
0.894118 0.011765 0.011765
0.894118 0.011765 0.011765
0.007843 0.380392 0.007843
0.007843 0.376471 0.007843
0.556863 0.407843 0.003922
0.850980 0.266667 0.003922
0.894118 0.011765 0.011765
0.003922 0.521569 0.003922
0.003922 0.521569 0.003922
0.003922 0.521569 0.003922
0.992157 0.662745 0.000000
0.988235 0.627451 0.000000
0.003922 0.525490 0.003922
0.003922 0.525490 0.003922
0.003922 0.525490 0.003922
0.003922 0.525490 0.003922
0.996078 0.678431 0.000000
0.015686 0.015686 0.705882
0.062745 0.015686 0.682353
0.596078 0.011765 0.596078
0.815686 0.007843 0.333333
0.894118 0.011765 0.011765
0.007843 0.129412 0.576471
0.007843 0.109804 0.568627
0.576471 0.011765 0.576471
0.823529 0.007843 0.294118
0.894118 0.011765 0.011765
0.003922 0.411765 0.537255
0.003922 0.407843 0.525490
0.478431 0.486275 0.545098
0.862745 0.262745 0.003922
0.894118 0.011765 0.011765
0.003922 0.521569 0.003922
0.003922 0.521569 0.003922
0.003922 0.521569 0.003922
0.988235 0.662745 0.000000
0.988235 0.623529 0.000000
0.003922 0.525490 0.003922
0.003922 0.525490 0.003922
0.003922 0.525490 0.003922
0.003922 0.525490 0.003922
0.996078 0.678431 0.000000
0.011765 0.019608 0.890196
0.011765 0.019608 0.890196
0.250980 0.007843 0.784314
0.643137 0.000000 0.635294
0.643137 0.000000 0.600000
0.011765 0.019608 0.890196
0.011765 0.019608 0.890196
0.192157 0.011765 0.796079
0.643137 0.000000 0.635294
0.643137 0.000000 0.596078
0.003922 0.360784 0.729412
0.003922 0.356863 0.729412
0.003922 0.356863 0.729412
0.745098 0.180392 0.745098
0.643137 0.000000 0.584314
0.000000 0.580392 0.764706
0.000000 0.580392 0.760784
0.000000 0.580392 0.760784
0.933333 0.909804 0.909804
0.976471 0.831373 0.768628
0.003922 0.525490 0.003922
0.003922 0.525490 0.003922
0.003922 0.525490 0.003922
0.003922 0.525490 0.003922
0.996078 0.678431 0.000000
0.011765 0.019608 0.890196
0.011765 0.019608 0.890196
0.011765 0.019608 0.890196
0.619608 0.000000 0.635294
0.643137 0.000000 0.635294
0.011765 0.019608 0.890196
0.011765 0.019608 0.890196
0.011765 0.019608 0.890196
0.615686 0.000000 0.635294
0.643137 0.000000 0.635294
0.011765 0.019608 0.890196
0.011765 0.019608 0.890196
0.011765 0.019608 0.890196
0.607843 0.000000 0.635294
0.643137 0.000000 0.635294
0.000000 0.568627 0.764706
0.000000 0.568627 0.764706
0.000000 0.564706 0.764706
0.713726 0.858824 0.917647
0.933333 0.792157 0.909804
0.000000 0.584314 0.764706
0.000000 0.584314 0.764706
0.000000 0.584314 0.764706
0.000000 0.584314 0.764706
0.968628 0.952941 0.949020
