Assets/Cinematic URP Post-Processing/Textures/LUTs/CUPP 3D LUTs/Graphicwaves 29.cube
TITLE "Generated by Koji Color"
LUT_3D_SIZE 33
0.011765 0.011765 0.011765
0.019608 0.011765 0.011765
0.039216 0.011765 0.011765
0.062745 0.011765 0.011765
0.101961 0.011765 0.011765
0.129412 0.015686 0.015686
0.164706 0.015686 0.015686
0.200000 0.015686 0.015686
0.243137 0.015686 0.015686
0.286275 0.015686 0.015686
0.337255 0.015686 0.015686
0.388235 0.015686 0.015686
0.447059 0.015686 0.015686
0.509804 0.015686 0.015686
0.580392 0.015686 0.015686
0.635294 0.015686 0.015686
0.705882 0.015686 0.015686
0.756863 0.015686 0.015686
0.796079 0.015686 0.015686
0.827451 0.015686 0.015686
0.847059 0.015686 0.015686
0.870588 0.015686 0.015686
0.890196 0.015686 0.015686
0.894118 0.011765 0.011765
0.894118 0.011765 0.011765
0.894118 0.011765 0.011765
0.894118 0.011765 0.011765
0.894118 0.011765 0.011765
0.894118 0.011765 0.011765
0.894118 0.011765 0.011765
0.894118 0.011765 0.011765
0.894118 0.011765 0.011765
0.894118 0.011765 0.011765
0.011765 0.015686 0.011765
0.015686 0.015686 0.011765
0.031373 0.015686 0.011765
0.058824 0.011765 0.011765
0.090196 0.011765 0.011765
0.125490 0.015686 0.015686
0.160784 0.015686 0.015686
0.196078 0.015686 0.015686
0.235294 0.015686 0.015686
0.282353 0.015686 0.015686
0.329412 0.015686 0.015686
0.384314 0.015686 0.015686
0.443137 0.015686 0.015686
0.509804 0.015686 0.015686
0.576471 0.015686 0.015686
0.635294 0.015686 0.015686
0.701961 0.015686 0.015686
0.756863 0.015686 0.015686
0.796079 0.015686 0.015686
0.823529 0.015686 0.015686
0.847059 0.015686 0.015686
0.866667 0.015686 0.015686
0.890196 0.015686 0.015686
0.894118 0.011765 0.011765
0.894118 0.011765 0.011765
0.894118 0.011765 0.011765
0.894118 0.011765 0.011765
0.894118 0.011765 0.011765
0.894118 0.011765 0.011765
0.894118 0.011765 0.011765
0.894118 0.011765 0.011765
0.894118 0.011765 0.011765
0.894118 0.011765 0.011765
0.011765 0.027451 0.011765
0.011765 0.023529 0.011765
0.027451 0.023529 0.011765
0.050980 0.023529 0.011765
0.078431 0.023529 0.011765
0.113725 0.019608 0.015686
0.149020 0.019608 0.015686
0.184314 0.019608 0.015686
0.231373 0.015686 0.015686
0.278431 0.015686 0.015686
0.325490 0.015686 0.015686
0.380392 0.015686 0.015686
0.439216 0.015686 0.015686
0.505882 0.015686 0.015686
0.576471 0.015686 0.015686
0.631373 0.015686 0.015686
0.701961 0.015686 0.015686
0.756863 0.015686 0.015686
0.792157 0.015686 0.015686
0.823529 0.015686 0.015686
0.847059 0.015686 0.015686
0.866667 0.015686 0.015686
0.886275 0.015686 0.015686
0.894118 0.011765 0.011765
0.894118 0.011765 0.011765
0.894118 0.011765 0.011765
0.894118 0.011765 0.011765
0.894118 0.011765 0.011765
0.894118 0.011765 0.011765
0.894118 0.011765 0.011765
0.894118 0.011765 0.011765
0.894118 0.011765 0.011765
0.894118 0.011765 0.011765
0.011765 0.039216 0.015686
0.011765 0.039216 0.015686
0.019608 0.039216 0.015686
0.039216 0.035294 0.015686
0.066667 0.035294 0.015686
0.101961 0.035294 0.015686
0.137255 0.031373 0.015686
0.168627 0.031373 0.011765
0.211765 0.027451 0.011765
0.254902 0.023529 0.011765
0.309804 0.019608 0.011765
0.372549 0.015686 0.015686
0.435294 0.015686 0.015686
0.501961 0.015686 0.015686
0.572549 0.015686 0.015686
0.631373 0.015686 0.015686
0.698039 0.015686 0.015686
0.756863 0.015686 0.015686
0.792157 0.015686 0.015686
0.823529 0.015686 0.015686
0.847059 0.015686 0.015686
0.866667 0.015686 0.015686
0.886275 0.015686 0.015686
0.894118 0.011765 0.011765
0.894118 0.011765 0.011765
0.894118 0.011765 0.011765
0.894118 0.011765 0.011765
0.894118 0.011765 0.011765
0.894118 0.011765 0.011765
0.894118 0.011765 0.011765
0.894118 0.011765 0.011765
0.894118 0.011765 0.011765
0.894118 0.011765 0.011765
0.011765 0.054902 0.015686
0.011765 0.054902 0.015686
0.011765 0.054902 0.015686
0.031373 0.050980 0.015686
0.058824 0.050980 0.015686
0.094118 0.050980 0.015686
0.125490 0.050980 0.011765
0.160784 0.047059 0.011765
0.200000 0.047059 0.011765
0.243137 0.043137 0.011765
0.290196 0.035294 0.011765
0.345098 0.027451 0.011765
0.411765 0.019608 0.011765
0.490196 0.015686 0.015686
0.568627 0.015686 0.015686
0.627451 0.015686 0.015686
0.694118 0.015686 0.015686
0.756863 0.015686 0.015686
0.792157 0.015686 0.015686
0.823529 0.015686 0.015686
0.847059 0.015686 0.015686
0.866667 0.015686 0.015686
0.886275 0.015686 0.015686
0.894118 0.011765 0.011765
0.894118 0.011765 0.011765
0.894118 0.011765 0.011765
0.894118 0.011765 0.011765
0.894118 0.011765 0.011765
0.894118 0.011765 0.011765
0.894118 0.011765 0.011765
0.894118 0.011765 0.011765
0.894118 0.011765 0.011765
0.894118 0.011765 0.011765
0.011765 0.078431 0.015686
0.011765 0.078431 0.015686
0.011765 0.074510 0.015686
0.019608 0.070588 0.015686
0.050980 0.070588 0.015686
0.082353 0.070588 0.015686
0.117647 0.066667 0.011765
0.152941 0.066667 0.007843
0.188235 0.062745 0.007843
0.227451 0.062745 0.007843
0.274510 0.054902 0.007843
0.329412 0.050980 0.011765
0.388235 0.039216 0.011765
0.454902 0.023529 0.011765
0.545098 0.019608 0.011765
0.623529 0.015686 0.015686
0.694118 0.015686 0.015686
0.752941 0.015686 0.015686
0.792157 0.015686 0.015686
0.823529 0.015686 0.015686
0.847059 0.015686 0.015686
0.866667 0.015686 0.015686
0.886275 0.015686 0.015686
0.894118 0.011765 0.011765
0.894118 0.011765 0.011765
0.894118 0.011765 0.011765
0.894118 0.011765 0.011765
0.894118 0.011765 0.011765
0.894118 0.011765 0.011765
0.894118 0.011765 0.011765
0.894118 0.011765 0.011765
0.894118 0.011765 0.011765
0.894118 0.011765 0.011765
0.007843 0.101961 0.015686
0.007843 0.098039 0.015686
0.007843 0.098039 0.015686
0.015686 0.098039 0.015686
0.039216 0.094118 0.015686
0.070588 0.094118 0.015686
0.109804 0.094118 0.011765
0.145098 0.094118 0.007843
0.180392 0.090196 0.007843
0.219608 0.090196 0.007843
0.262745 0.082353 0.007843
0.313726 0.074510 0.007843
0.368627 0.066667 0.007843
0.431373 0.054902 0.007843
0.509804 0.031373 0.011765
0.584314 0.019608 0.011765
0.686275 0.015686 0.015686
0.752941 0.015686 0.015686
0.788235 0.015686 0.015686
0.823529 0.015686 0.015686
0.847059 0.015686 0.015686
0.866667 0.015686 0.015686
0.886275 0.015686 0.015686
0.894118 0.011765 0.011765
0.894118 0.011765 0.011765
0.894118 0.011765 0.011765
0.894118 0.011765 0.011765
0.894118 0.011765 0.011765
0.894118 0.011765 0.011765
0.894118 0.011765 0.011765
0.894118 0.011765 0.011765
0.894118 0.011765 0.011765
0.894118 0.011765 0.011765
0.007843 0.121569 0.015686
0.007843 0.121569 0.015686
0.007843 0.117647 0.015686
0.007843 0.117647 0.015686
0.019608 0.113725 0.015686
0.054902 0.117647 0.011765
0.098039 0.117647 0.007843
0.133333 0.117647 0.007843
0.172549 0.117647 0.007843
0.211765 0.113725 0.007843
0.258824 0.113725 0.007843
0.305882 0.105882 0.007843
0.360784 0.101961 0.007843
0.419608 0.090196 0.007843
0.490196 0.066667 0.007843
0.556863 0.043137 0.007843
0.635294 0.023529 0.011765
0.729412 0.015686 0.015686
0.788235 0.015686 0.015686
0.823529 0.015686 0.015686
0.847059 0.015686 0.015686
0.866667 0.015686 0.015686
0.886275 0.015686 0.015686
0.894118 0.011765 0.011765
0.894118 0.011765 0.011765
0.894118 0.011765 0.011765
0.894118 0.011765 0.011765
0.894118 0.011765 0.011765
0.894118 0.011765 0.011765
0.894118 0.011765 0.011765
0.894118 0.011765 0.011765
0.894118 0.011765 0.011765
0.894118 0.011765 0.011765
0.007843 0.141176 0.015686
0.007843 0.141176 0.015686
0.007843 0.141176 0.015686
0.007843 0.137255 0.015686
0.011765 0.137255 0.015686
0.035294 0.137255 0.011765
0.078431 0.137255 0.007843
0.121569 0.141176 0.007843
0.164706 0.141176 0.007843
0.203922 0.137255 0.007843
0.250980 0.137255 0.007843
0.301961 0.133333 0.007843
0.356863 0.129412 0.007843
0.411765 0.121569 0.007843
0.478431 0.113725 0.007843
0.545098 0.094118 0.007843
0.611765 0.054902 0.007843
0.682353 0.031373 0.007843
0.749020 0.019608 0.011765
0.819608 0.015686 0.015686
0.847059 0.015686 0.015686
0.866667 0.015686 0.015686
0.886275 0.015686 0.015686
0.894118 0.011765 0.011765
0.894118 0.011765 0.011765
0.894118 0.011765 0.011765
0.894118 0.011765 0.011765
0.894118 0.011765 0.011765
0.894118 0.011765 0.011765
0.894118 0.011765 0.011765
0.894118 0.011765 0.011765
0.894118 0.011765 0.011765
0.894118 0.011765 0.011765
0.007843 0.164706 0.015686
0.007843 0.164706 0.015686
0.007843 0.164706 0.015686
0.007843 0.160784 0.015686
0.007843 0.160784 0.015686
0.015686 0.160784 0.015686
0.054902 0.160784 0.007843
0.105882 0.160784 0.007843
0.152941 0.164706 0.007843
0.196078 0.164706 0.007843
0.239216 0.160784 0.007843
0.290196 0.160784 0.007843
0.349020 0.156863 0.007843
0.407843 0.152941 0.007843
0.474510 0.145098 0.007843
0.541176 0.133333 0.007843
0.603922 0.117647 0.007843
0.670588 0.082353 0.007843
0.713726 0.035294 0.007843
0.764706 0.019608 0.011765
0.839216 0.015686 0.015686
0.866667 0.015686 0.015686
0.886275 0.015686 0.015686
0.894118 0.011765 0.011765
0.894118 0.011765 0.011765
0.894118 0.011765 0.011765
0.894118 0.011765 0.011765
0.894118 0.011765 0.011765
0.894118 0.011765 0.011765
0.894118 0.011765 0.011765
0.894118 0.011765 0.011765
0.894118 0.011765 0.011765
0.894118 0.011765 0.011765
0.007843 0.188235 0.015686
0.007843 0.188235 0.015686
0.007843 0.188235 0.015686
0.007843 0.188235 0.015686
0.007843 0.184314 0.015686
0.007843 0.184314 0.015686
0.023529 0.184314 0.011765
0.082353 0.184314 0.007843
0.133333 0.188235 0.007843
0.180392 0.188235 0.007843
0.231373 0.188235 0.007843
0.282353 0.188235 0.007843
0.341176 0.188235 0.007843
0.400000 0.184314 0.007843
0.466667 0.180392 0.007843
0.533333 0.168627 0.007843
0.600000 0.156863 0.007843
0.666667 0.137255 0.007843
0.709804 0.105882 0.007843
0.741176 0.050980 0.007843
0.780392 0.027451 0.007843
0.858824 0.015686 0.015686
0.886275 0.015686 0.015686
0.894118 0.011765 0.011765
0.894118 0.011765 0.011765
0.894118 0.011765 0.011765
0.894118 0.011765 0.011765
0.894118 0.011765 0.011765
0.894118 0.011765 0.011765
0.894118 0.011765 0.011765
0.894118 0.011765 0.011765
0.894118 0.011765 0.011765
0.894118 0.011765 0.011765
0.007843 0.215686 0.015686
0.007843 0.215686 0.015686
0.007843 0.215686 0.015686
0.007843 0.215686 0.015686
0.007843 0.211765 0.015686
0.007843 0.211765 0.015686
0.011765 0.211765 0.015686
0.043137 0.211765 0.007843
0.109804 0.211765 0.007843
0.164706 0.215686 0.007843
0.215686 0.219608 0.007843
0.270588 0.219608 0.007843
0.329412 0.219608 0.003922
0.392157 0.215686 0.003922
0.458824 0.211765 0.003922
0.529412 0.207843 0.003922
0.600000 0.196078 0.003922
0.666667 0.180392 0.003922
0.709804 0.160784 0.003922
0.741176 0.133333 0.003922
0.768628 0.074510 0.007843
0.792157 0.031373 0.007843
0.878431 0.015686 0.011765
0.894118 0.011765 0.011765
0.894118 0.011765 0.011765
0.894118 0.011765 0.011765
0.894118 0.011765 0.011765
0.894118 0.011765 0.011765
0.894118 0.011765 0.011765
0.894118 0.011765 0.011765
0.894118 0.011765 0.011765
0.894118 0.011765 0.011765
0.894118 0.011765 0.011765
0.007843 0.247059 0.015686
0.007843 0.247059 0.015686
0.007843 0.243137 0.015686
0.007843 0.243137 0.015686
0.007843 0.243137 0.015686
0.007843 0.243137 0.015686
0.007843 0.239216 0.015686
0.011765 0.239216 0.007843
0.070588 0.239216 0.007843
0.137255 0.243137 0.007843
0.196078 0.247059 0.003922
0.254902 0.247059 0.003922
0.317647 0.250980 0.003922
0.384314 0.250980 0.003922
0.450980 0.247059 0.003922
0.529412 0.243137 0.003922
0.596078 0.235294 0.003922
0.666667 0.227451 0.003922
0.717647 0.207843 0.003922
0.749020 0.188235 0.003922
0.772549 0.156863 0.003922
0.792157 0.105882 0.003922
0.807843 0.035294 0.007843
0.878431 0.015686 0.011765
0.894118 0.011765 0.011765
0.894118 0.011765 0.011765
0.894118 0.011765 0.011765
0.894118 0.011765 0.011765
0.894118 0.011765 0.011765
0.894118 0.011765 0.011765
0.894118 0.011765 0.011765
0.894118 0.011765 0.011765
0.894118 0.011765 0.011765
0.007843 0.278431 0.011765
0.007843 0.274510 0.011765
0.007843 0.274510 0.011765
0.007843 0.274510 0.011765
0.007843 0.274510 0.011765
0.007843 0.274510 0.011765
0.007843 0.274510 0.011765
0.007843 0.270588 0.011765
0.015686 0.266667 0.007843
0.098039 0.274510 0.007843
0.168627 0.278431 0.003922
0.235294 0.282353 0.003922
0.298039 0.282353 0.003922
0.368627 0.286275 0.003922
0.439216 0.286275 0.003922
0.521569 0.282353 0.003922
0.592157 0.278431 0.003922
0.670588 0.266667 0.003922
0.721569 0.254902 0.003922
0.756863 0.239216 0.003922
0.780392 0.215686 0.003922
0.800000 0.184314 0.003922
0.811765 0.133333 0.003922
0.815686 0.043137 0.003922
0.858824 0.015686 0.011765
0.894118 0.011765 0.011765
0.894118 0.011765 0.011765
0.894118 0.011765 0.011765
0.894118 0.011765 0.011765
0.894118 0.011765 0.011765
0.894118 0.011765 0.011765
0.894118 0.011765 0.011765
0.894118 0.011765 0.011765
0.007843 0.309804 0.007843
0.007843 0.309804 0.007843
0.007843 0.305882 0.007843
0.007843 0.305882 0.007843
0.007843 0.305882 0.007843
0.007843 0.305882 0.007843
0.007843 0.305882 0.007843
0.007843 0.305882 0.007843
0.007843 0.301961 0.007843
0.019608 0.298039 0.007843
0.129412 0.309804 0.003922
0.203922 0.313726 0.003922
0.278431 0.317647 0.003922
0.349020 0.321569 0.003922
0.427451 0.321569 0.003922
0.509804 0.321569 0.003922
0.584314 0.317647 0.003922
0.666667 0.313726 0.003922
0.729412 0.301961 0.003922
0.764706 0.290196 0.003922
0.792157 0.270588 0.003922
0.811765 0.243137 0.003922
0.823529 0.211765 0.003922
0.827451 0.160784 0.003922
0.819608 0.078431 0.003922
0.843137 0.015686 0.007843
0.890196 0.011765 0.011765
0.894118 0.011765 0.011765
0.894118 0.011765 0.011765
0.894118 0.011765 0.011765
0.894118 0.011765 0.011765
0.894118 0.011765 0.011765
0.894118 0.011765 0.011765
0.007843 0.345098 0.007843
0.007843 0.345098 0.007843
0.007843 0.345098 0.007843
0.007843 0.341176 0.007843
0.007843 0.341176 0.007843
0.007843 0.341176 0.007843
0.007843 0.341176 0.007843
0.007843 0.341176 0.007843
0.007843 0.337255 0.007843
0.007843 0.337255 0.007843
0.027451 0.337255 0.003922
0.160784 0.345098 0.003922
0.247059 0.352941 0.003922
0.325490 0.356863 0.003922
0.411765 0.360784 0.003922
0.494118 0.360784 0.003922
0.580392 0.360784 0.003922
0.662745 0.356863 0.003922
0.729412 0.352941 0.003922
0.772549 0.341176 0.003922
0.800000 0.325490 0.003922
0.823529 0.305882 0.003922
0.839216 0.274510 0.003922
0.843137 0.239216 0.003922
0.835294 0.196078 0.003922
0.823529 0.113725 0.003922
0.831373 0.019608 0.007843
0.894118 0.011765 0.011765
0.894118 0.011765 0.011765
0.894118 0.011765 0.011765
0.894118 0.011765 0.011765
0.894118 0.011765 0.011765
0.894118 0.011765 0.011765
0.007843 0.380392 0.007843
0.007843 0.380392 0.007843
0.007843 0.380392 0.007843
0.007843 0.380392 0.007843
0.007843 0.380392 0.007843
0.007843 0.380392 0.007843
0.007843 0.380392 0.007843
0.007843 0.380392 0.007843
0.007843 0.380392 0.007843
0.007843 0.376471 0.007843
0.007843 0.376471 0.007843
0.074510 0.380392 0.003922
0.196078 0.392157 0.003922
0.294118 0.400000 0.003922
0.388235 0.407843 0.003922
0.478431 0.407843 0.003922
0.572549 0.411765 0.003922
0.658824 0.407843 0.003922
0.733333 0.403922 0.003922
0.780392 0.392157 0.003922
0.811765 0.380392 0.003922
0.839216 0.360784 0.003922
0.854902 0.337255 0.003922
0.862745 0.309804 0.003922
0.854902 0.274510 0.003922
0.843137 0.227451 0.003922
0.823529 0.145098 0.003922
0.827451 0.023529 0.007843
0.894118 0.011765 0.011765
0.894118 0.011765 0.011765
0.894118 0.011765 0.011765
0.894118 0.011765 0.011765
0.894118 0.011765 0.011765
0.007843 0.415686 0.007843
0.007843 0.415686 0.007843
0.007843 0.415686 0.007843
0.007843 0.415686 0.007843
0.007843 0.411765 0.007843
0.007843 0.411765 0.007843
0.007843 0.411765 0.007843
0.007843 0.411765 0.007843
0.007843 0.411765 0.007843
0.007843 0.411765 0.007843
0.007843 0.411765 0.007843
0.007843 0.407843 0.007843
0.105882 0.419608 0.003922
0.239216 0.435294 0.003922
0.349020 0.447059 0.003922
0.450980 0.454902 0.003922
0.552941 0.458824 0.003922
0.647059 0.458824 0.003922
0.737255 0.454902 0.003922
0.792157 0.450980 0.003922
0.827451 0.439216 0.003922
0.858824 0.423529 0.003922
0.874510 0.400000 0.003922
0.882353 0.372549 0.000000
0.874510 0.349020 0.000000
0.866667 0.313726 0.003922
0.850980 0.262745 0.003922
0.831373 0.180392 0.003922
0.819608 0.027451 0.007843
0.894118 0.011765 0.011765
0.894118 0.011765 0.011765
0.894118 0.011765 0.011765
0.894118 0.011765 0.011765
0.007843 0.450980 0.007843
0.007843 0.450980 0.007843
0.007843 0.450980 0.007843
0.007843 0.447059 0.007843
0.007843 0.447059 0.007843
0.007843 0.447059 0.007843
0.007843 0.447059 0.007843
0.007843 0.447059 0.007843
0.007843 0.447059 0.007843
0.007843 0.447059 0.007843
0.007843 0.447059 0.007843
0.007843 0.443137 0.007843
0.007843 0.443137 0.007843
0.141176 0.462745 0.003922
0.290196 0.482353 0.003922
0.411765 0.494118 0.003922
0.521569 0.501961 0.003922
0.631373 0.505882 0.003922
0.729412 0.505882 0.003922
0.800000 0.501961 0.003922
0.843137 0.494118 0.003922
0.874510 0.482353 0.003922
0.894118 0.462745 0.000000
0.905882 0.439216 0.000000
0.898039 0.419608 0.000000
0.890196 0.388235 0.000000
0.878431 0.349020 0.000000
0.858824 0.298039 0.003922
0.839216 0.215686 0.003922
0.815686 0.035294 0.003922
0.894118 0.011765 0.011765
0.894118 0.011765 0.011765
0.894118 0.011765 0.011765
0.003922 0.474510 0.003922
0.003922 0.474510 0.003922
0.003922 0.474510 0.003922
0.003922 0.474510 0.003922
0.003922 0.474510 0.003922
0.003922 0.474510 0.003922
0.003922 0.470588 0.003922
0.003922 0.470588 0.003922
0.003922 0.470588 0.003922
0.003922 0.470588 0.003922
0.003922 0.470588 0.003922
0.003922 0.470588 0.003922
0.003922 0.470588 0.003922
0.007843 0.466667 0.003922
0.176471 0.501961 0.003922
0.341176 0.521569 0.003922
0.474510 0.537255 0.003922
0.603922 0.545098 0.003922
0.713726 0.552941 0.003922
0.807843 0.552941 0.003922
0.854902 0.549020 0.000000
0.894118 0.545098 0.000000
0.917647 0.529412 0.000000
0.933333 0.505882 0.000000
0.929412 0.486275 0.000000
0.917647 0.462745 0.000000
0.905882 0.435294 0.000000
0.890196 0.392157 0.000000
0.874510 0.337255 0.003922
0.847059 0.247059 0.003922
0.819608 0.058824 0.003922
0.874510 0.015686 0.011765
0.874510 0.015686 0.011765
0.003922 0.486275 0.003922
0.003922 0.486275 0.003922
0.003922 0.486275 0.003922
0.003922 0.486275 0.003922
0.003922 0.486275 0.003922
0.003922 0.486275 0.003922
0.003922 0.486275 0.003922
0.003922 0.486275 0.003922
0.003922 0.486275 0.003922
0.003922 0.486275 0.003922
0.003922 0.486275 0.003922
0.003922 0.486275 0.003922
0.003922 0.486275 0.003922
0.003922 0.486275 0.003922
0.007843 0.482353 0.003922
0.219608 0.525490 0.003922
0.396078 0.552941 0.003922
0.549020 0.568627 0.003922
0.678431 0.580392 0.003922
0.792157 0.588235 0.000000
0.854902 0.588235 0.000000
0.901961 0.584314 0.000000
0.933333 0.576471 0.000000
0.952941 0.560784 0.000000
0.956863 0.549020 0.000000
0.949020 0.537255 0.000000
0.941177 0.513726 0.000000
0.925490 0.478431 0.000000
0.905882 0.435294 0.000000
0.882353 0.376471 0.000000
0.854902 0.282353 0.003922
0.843137 0.235294 0.003922
0.843137 0.235294 0.003922
0.003922 0.498039 0.003922
0.003922 0.498039 0.003922
0.003922 0.498039 0.003922
0.003922 0.498039 0.003922
0.003922 0.498039 0.003922
0.003922 0.498039 0.003922
0.003922 0.498039 0.003922
0.003922 0.498039 0.003922
0.003922 0.498039 0.003922
0.003922 0.498039 0.003922
0.003922 0.498039 0.003922
0.003922 0.498039 0.003922
0.003922 0.498039 0.003922
0.003922 0.498039 0.003922
0.003922 0.498039 0.003922
0.011765 0.498039 0.003922
0.262745 0.549020 0.003922
0.462745 0.580392 0.003922
0.619608 0.596078 0.000000
0.756863 0.607843 0.000000
0.847059 0.611765 0.000000
0.898039 0.611765 0.000000
0.937255 0.607843 0.000000
0.964706 0.600000 0.000000
0.972549 0.588235 0.000000
0.972549 0.580392 0.000000
0.968628 0.572549 0.000000
0.960784 0.552941 0.000000
0.949020 0.529412 0.000000
0.925490 0.482353 0.000000
0.901961 0.419608 0.000000
0.890196 0.392157 0.000000
0.890196 0.392157 0.000000
0.003922 0.509804 0.003922
0.003922 0.509804 0.003922
0.003922 0.509804 0.003922
0.003922 0.509804 0.003922
0.003922 0.509804 0.003922
0.003922 0.509804 0.003922
0.003922 0.509804 0.003922
0.003922 0.509804 0.003922
0.003922 0.509804 0.003922
0.003922 0.509804 0.003922
0.003922 0.509804 0.003922
0.003922 0.509804 0.003922
0.003922 0.509804 0.003922
0.003922 0.509804 0.003922
0.003922 0.509804 0.003922
0.003922 0.505882 0.003922
0.015686 0.513726 0.003922
0.313726 0.572549 0.003922
0.521569 0.603922 0.000000
0.690196 0.623529 0.000000
0.823529 0.635294 0.000000
0.890196 0.635294 0.000000
0.941177 0.635294 0.000000
0.972549 0.627451 0.000000
0.988235 0.619608 0.000000
0.984314 0.615686 0.000000
0.984314 0.607843 0.000000
0.980392 0.596078 0.000000
0.972549 0.584314 0.000000
0.964706 0.564706 0.000000
0.949020 0.533333 0.000000
0.941177 0.513726 0.000000
0.941177 0.513726 0.000000
0.003922 0.517647 0.003922
0.003922 0.517647 0.003922
0.003922 0.517647 0.003922
0.003922 0.517647 0.003922
0.003922 0.517647 0.003922
0.003922 0.517647 0.003922
0.003922 0.517647 0.003922
0.003922 0.517647 0.003922
0.003922 0.517647 0.003922
0.003922 0.517647 0.003922
0.003922 0.517647 0.003922
0.003922 0.517647 0.003922
0.003922 0.517647 0.003922
0.003922 0.517647 0.003922
0.003922 0.517647 0.003922
0.003922 0.517647 0.003922
0.003922 0.513726 0.003922
0.015686 0.525490 0.003922
0.360784 0.588235 0.000000
0.584314 0.623529 0.000000
0.764706 0.643137 0.000000
0.870588 0.650980 0.000000
0.929412 0.654902 0.000000
0.972549 0.650980 0.000000
0.996078 0.643137 0.000000
0.992157 0.639216 0.000000
0.992157 0.635294 0.000000
0.992157 0.627451 0.000000
0.988235 0.619608 0.000000
0.984314 0.611765 0.000000
0.976471 0.596078 0.000000
0.972549 0.588235 0.000000
0.972549 0.588235 0.000000
0.003922 0.521569 0.003922
0.003922 0.521569 0.003922
0.003922 0.521569 0.003922
0.003922 0.521569 0.003922
0.003922 0.521569 0.003922
0.003922 0.521569 0.003922
0.003922 0.521569 0.003922
0.003922 0.521569 0.003922
0.003922 0.521569 0.003922
0.003922 0.521569 0.003922
0.003922 0.521569 0.003922
0.003922 0.521569 0.003922
0.003922 0.521569 0.003922
0.003922 0.521569 0.003922
0.003922 0.521569 0.003922
0.003922 0.521569 0.003922
0.003922 0.521569 0.003922
0.003922 0.517647 0.003922
0.019608 0.537255 0.000000
0.411765 0.607843 0.000000
0.643137 0.639216 0.000000
0.815686 0.662745 0.000000
0.901961 0.666667 0.000000
0.956863 0.670588 0.000000
0.992157 0.666667 0.000000
0.996078 0.658824 0.000000
0.996078 0.658824 0.000000
0.996078 0.654902 0.000000
0.996078 0.647059 0.000000
0.996078 0.643137 0.000000
0.992157 0.631373 0.000000
0.988235 0.627451 0.000000
0.988235 0.627451 0.000000
0.003922 0.525490 0.003922
0.003922 0.525490 0.003922
0.003922 0.525490 0.003922
0.003922 0.525490 0.003922
0.003922 0.525490 0.003922
0.003922 0.525490 0.003922
0.003922 0.525490 0.003922
0.003922 0.525490 0.003922
0.003922 0.525490 0.003922
0.003922 0.525490 0.003922
0.003922 0.525490 0.003922
0.003922 0.525490 0.003922
0.003922 0.525490 0.003922
0.003922 0.525490 0.003922
0.003922 0.525490 0.003922
0.003922 0.525490 0.003922
0.003922 0.525490 0.003922
0.003922 0.525490 0.003922
0.003922 0.521569 0.003922
0.054902 0.545098 0.000000
0.466667 0.619608 0.000000
0.709804 0.658824 0.000000
0.858824 0.674510 0.000000
0.929412 0.678431 0.000000
0.988235 0.682353 0.000000
0.996078 0.678431 0.000000
0.996078 0.674510 0.000000
0.996078 0.674510 0.000000
0.996078 0.670588 0.000000
0.996078 0.666667 0.000000
0.996078 0.658824 0.000000
0.996078 0.654902 0.000000
0.996078 0.654902 0.000000
0.003922 0.525490 0.003922
0.003922 0.525490 0.003922
0.003922 0.525490 0.003922
0.003922 0.525490 0.003922
0.003922 0.525490 0.003922
0.003922 0.525490 0.003922
0.003922 0.525490 0.003922
0.003922 0.525490 0.003922
0.003922 0.525490 0.003922
0.003922 0.525490 0.003922
0.003922 0.525490 0.003922
0.003922 0.525490 0.003922
0.003922 0.525490 0.003922
0.003922 0.525490 0.003922
0.003922 0.525490 0.003922
0.003922 0.525490 0.003922
0.003922 0.525490 0.003922
0.003922 0.525490 0.003922
0.003922 0.525490 0.003922
0.003922 0.521569 0.003922
0.109804 0.556863 0.000000
0.529412 0.631373 0.000000
0.784314 0.666667 0.000000
0.898039 0.678431 0.000000
0.964706 0.682353 0.000000
0.996078 0.678431 0.000000
0.996078 0.678431 0.000000
0.996078 0.678431 0.000000
0.996078 0.678431 0.000000
